X: 5378
T: Bucks Of Oranmore, The
R: reel
M: 4/4
K: Dmajor
|:(3AcA FA A2dB|ADFA B~E3|1 TA2 FA AFAB|defd ecdB:|2 DEFG AFAB|defd ecdB||
|:A~D3 ADBD|A~D3 B~E3|1 A~D3 AFAB|defd ecdB:|2 DEFG ~A3B|defd eddf||
~a2fd eddf|~a2fd edBd|~A2fd eddf|(3gfe fd edBd|
Adfd edfd|Adfd edBd|Adfd eddf|(3gfe fd edBd|
(3fgf df (3ege d2|(3fgf df eBB2|f~a3 bfaf|defd ecdB|

